X: 18
T: Gallagher's Frolics
Z: JACKB
S: https://thesession.org/tunes/160#setting48175
R: jig
M: 6/8
L: 1/8
K: Edor
|:D|E3 GFE|B3 dBA|BdB BAB|GB/A/G AFD|
E3 GFE|B3 dBA|BAG FAF|GEE E2:|
|:e|e2 g gfe|g2 b bge|dB/c/d fed|fad fed|
e2 f gfe|dg/f/e dBA|BAG FAF|GEE E2:|

